X:510
T: McCormack's
S: "First Collection of Traditional Irish Music" (M.Mulvihill)
Z: B.Black
L: 1/8
M: C|
R: hornpipe
K: Bb
(3edc|B2 B,2 (3dcB (3AGF|E2 g2 g2 fe|dfBd ceAc|\
(3Bdf (3bag (3fgf (3edc|
B2 B,2 (3dcB (3AGF|E2 g2 g2 fe|dfBd ceAc|BABc B2 :|
B,G|B,DFB dfba|g^fga g2 CB,|G,B,FA cfag|(3fef g2 f2 B,A,|
B,DFB dfba|g^fga g3 b|agfd ecAc|BABc B2 :|
